!!!OTL: GOENSTIGER HERR UND FREUND
!!!ARE: Europa, Mitteleuropa, Deutschland
!!!SCT: E1142
!!!YEM: Copyright 1995, estate of Helmut Schaffrath.
**kern
*ICvox
*Ivox
*M4/4
*k[b-]
*F:
{4a
=1
4a
4a
4a
4a
=2
2.a}
{4a
=3
4a
4g
4a
4b-
=4
2cc
4r}
{4g
=5
4g
4g
4g
4g
=6
2.g}
{4cc
=7
4b-
4a
2g
=8
2f
4r}
{4f
=9
4f
4f
4f
4f
=10
2.f}
{4f
=11
4f
4g
4a
4b-
=12
2cc
4r}
{4g
=13
4g
4g
4g
4g
=14
2e
4r}
{4f
=15
4f
4f
2g
=16
2.f}
==
!!!AGN: Trink -, Zech - Lied
!!!ONB: ESAC (Essen Associative Code) Database: ERK3
!!!AMT: simple quadruple
!!!AIN: vox
!!!EED: Helmut Schaffrath
!!!EEV: 1.0
*-
